X:1
T:THE NIGHTINGALES SING
M:3/4
L:1/4
K:C
 C| E G c| A G E| D G G| C2 c| d c d| e c G| A G A| c2- c| d c d| e c G|\
 A G A| c2C/2-C/2| E G c| A GE/2-E/2| D G G| C2||

